svgs/thin/square-share-nodes.svg

<svg xmlns="http://www.w3.org/2000/svg" viewBox="0 0 448 512"><!--! Font Awesome Pro 6.4.0 by @fontawesome - https://fontawesome.com License - https://fontawesome.com/license (Commercial License) Copyright 2023 Fonticons, Inc. --><path d="M64 48C37.5 48 16 69.5 16 96V416c0 26.5 21.5 48 48 48H384c26.5 0 48-21.5 48-48V96c0-26.5-21.5-48-48-48H64zM0 96C0 60.7 28.7 32 64 32H384c35.3 0 64 28.7 64 64V416c0 35.3-28.7 64-64 64H64c-35.3 0-64-28.7-64-64V96zm328 96a40 40 0 1 0 0-80 40 40 0 1 0 0 80zm0 16c-19.1 0-35.9-9.5-46-24.1L173.2 238.4c1.8 5.5 2.8 11.5 2.8 17.6s-1 12.1-2.8 17.6L282 328.1c10.1-14.5 26.9-24.1 46-24.1c30.9 0 56 25.1 56 56s-25.1 56-56 56s-56-25.1-56-56c0-6.2 1-12.1 2.8-17.6L166 287.9c-10.1 14.5-26.9 24.1-46 24.1c-30.9 0-56-25.1-56-56s25.1-56 56-56c19.1 0 35.9 9.5 46 24.1l108.8-54.4c-1.8-5.5-2.8-11.5-2.8-17.6c0-30.9 25.1-56 56-56s56 25.1 56 56s-25.1 56-56 56zm0 192a40 40 0 1 0 0-80 40 40 0 1 0 0 80zM160 256a40 40 0 1 0 -80 0 40 40 0 1 0 80 0z"/></svg>

<svg xmlns="http://www.w3.org/2000/svg" viewBox="0 0 448 512"><!--! Font Awesome Pro 6.3.0 by @fontawesome - https://fontawesome.com License - https://fontawesome.com/license (Commercial License) Copyright 2023 Fonticons, Inc. --><path d="M281.1 183.9L173.2 238.4C175 243.9 176 249.8 176 256C176 262.2 175 268.1 173.2 273.6L282 328.1C292.1 313.5 308.9 304 328 304C358.9 304 384 329.1 384 360C384 390.9 358.9 416 328 416C297.1 416 272 390.9 272 360C272 353.8 272.1 347.9 274.8 342.4L166 287.9C155.9 302.5 139.1 312 120 312C89.07 312 64 286.9 64 256C64 225.1 89.07 200 120 200C139.1 200 155.9 209.5 165.1 224.1L274.8 169.6C272.1 164.1 272 158.2 272 152C272 121.1 297.1 96 328 96C358.9 96 384 121.1 384 152C384 182.9 358.9 208 328 208C308.9 208 292.1 198.5 281.1 183.9L281.1 183.9zM328 192C350.1 192 368 174.1 368 152C368 129.9 350.1 112 328 112C305.9 112 288 129.9 288 152C288 174.1 305.9 192 328 192zM328 400C350.1 400 368 382.1 368 360C368 337.9 350.1 320 328 320C305.9 320 288 337.9 288 360C288 382.1 305.9 400 328 400zM120 216C97.91 216 80 233.9 80 256C80 278.1 97.91 296 120 296C142.1 296 160 278.1 160 256C160 233.9 142.1 216 120 216zM0 96C0 60.65 28.65 32 64 32H384C419.3 32 448 60.65 448 96V416C448 451.3 419.3 480 384 480H64C28.65 480 0 451.3 0 416V96zM16 96V416C16 442.5 37.49 464 64 464H384C410.5 464 432 442.5 432 416V96C432 69.49 410.5 48 384 48H64C37.49 48 16 69.49 16 96z"/></svg>
